X:185
T:Rural Assembly. THO5.185, The
M:C
L:1/8
B:Thompson's Complete Collection of 200 Favourite Dances Vol.5
F:https://www.libraryofdance.org/manuals/1780c-Thompson-Compleat-5.pdf
Z:vmp. Peter Dunk 2024
Q:1/4=100
K:A
Ac/d/ ee f/g/a/f/ e2|d/f/B/d/ c/e/A/c/ B/c/d/B/ A/G/F/E/|
Ac/d/ ee f/g/a/f/ e2|ag/f/ gf/e/ B^d e2:|
%
|:a/e/c/e/ A/c/e/=g/ f/d/A/F/ D/F/A/d/|\\
a/f/^d/e/ B/d/f/a/ g/e/B/G/ E/G/B/e/|
%
ec/e/ dB/d/ cB/A/ GF/E/|A/B/c/d/ e/f/g/a/ cB A2:|
W:
W:Hands 3 with the 2nd Lady, the same with the 2nd Gent ./.
W:Lead down the middle, up again & cast off :/.
W:Lead through the bottom & cast up, through the top cast off :/.
W:Hands 4 at bottom, Right & Left :/:

